X:75
T:While Shepards Wach,4voices. WHG.074
R:hymn
S:W.H.Giles MS,Bampton,Oxfordshire,1839p78
O:England
H:donated by Mrs W.R.Kettlewell to VWML,Apr 1927.
A:Bampton, Oxfordshire
N:Voices 1 & 2 bar 10, 3rd note is not dotted in MS.
N:No title in MS. Feintly similar to WHG076.
Z:PJHeadford – VMP 2009
M:C
L:1/4
Q:1/2=90
K:G
V:1 clef=treble
e2 de|f2 e2|(fe) (dc)|d4||\
B2 cd|A2 B2|c4||
G2 BA|G3 c|(e>d c)>A|B4||\
d2 cd|(e2 d)c|
d2 z2|z4|\
c2 ed|(c>B A>B|G2 G2|G4|]
V:2 clef=treble
g2 ag|f2 g2|(ag) ^f2|g4||\
g2 ag|e2 d2|e4||
g2 gf|(e2 d)e/d/|(c>d e>)f|g4||\
z4|z4|
d2 cB|(c>d e)f|\
g4|e2 ef|g2 g2|e4|]
V:3 clef=treble
c2 Bc|d2 e2|(dc) (BA)|G4||\
G2 cB|(c>d e)d|c4||
c2 dc|(B>A G)c/B/|(AB c2)|d4||\
d2 ed|(c2 B)A|
G2 z2|z4|\
e2 cG|A>B c>d|e2 d2|c4|]
V:4 clef=bass
C,2 D,E,|D,2 C,2|(D,E,) F,2|G,4||\
G,2 F,G,|A,2 G,2|C,4||
C2 G,F,|(E,>F, G,)A,/B,/|(CB,) A,2|G,4||\
z4|z4|
G,2 G,G,|(F,2 E,)D,|\
C,2- C,2|C2 A,D,|(E,>F, G,)B,,|C,4|]

